!!!COM: Jules Massenet
!!!CNT: Francais
!!!TXO: Francais
!!!OTL: Epitaphe
!!!LYR: Armand Silvestre
!!!OPR: Poe2me du Souvenir
!!!ONM: No. 6
!!!ENC: Jacob Pegg
!!!YOR: Romantic French Song 1830-1870 - David Tunley, ed.,
!!!YOR: New York: Garland Publishing, Inc., 1995, Vol. 6
!!!ODT: 1868/
!!NB: Vocal melody and text only encoded.
!!NB: First instance of melodic material only encoded.
**kern	**silbe
*clef G2	*
*k[b-]	*
*M3/4	*
!!created: 12/15/03 13:03
!!proofed and posted: 12/15/03 13:47
!!edit time: 10 min.
!! mm. 1-12 piano only
=13	=13
{8.dd	{Sou-
16b-	-ve-
4g	-nir
8.b-	e/-
16a	-ter-
=14	=14
2b-}	-nel,}
8r	.
{8cc	{Re-
=15	=15
4.a	-gret
8f	in-
8.a	-con-
16f	-so-
=16	=16
(4f	-le/,
4e)}	|}
6r	.
{12cc	{A-
=17	=17
4.cc	-mour
8cc	qui
8ee-	fus
8dd	ma
=18	=18
(4.gg	vi-
8ff	|
8een	|
8dd)	|
=19	=19
[8cc	-e,
16cc]}	|}
16r	.
{4a	{Et
4dd	qui
=20	=20
4cc	t'es
4b-	en-
4dd	-vo-
=21	=21
[2.ff	-le/!
=22	=22
2.ff_	|
=23	=23
4ff]}	|}
4r	.
4r	.
*-	*-
